src/cards/spades_ace.svg

<svg version="1.1" id="Layer_1" xmlns="http://www.w3.org/2000/svg" xmlns:xlink="http://www.w3.org/1999/xlink" x="0px" y="0px"
	 width="100%" viewBox="0 0 336 496" enable-background="new 0 0 336 496" xml:space="preserve">
<path fill="currentColor" opacity="1.000000" stroke="none" 
	d="
M176.230896,176.744385 
	C184.364578,185.988998 194.313278,192.472458 203.847580,199.454208 
	C211.123520,204.782242 218.185730,210.367432 223.997269,217.309647 
	C235.089005,230.559433 239.227509,245.617874 232.625809,261.924988 
	C224.113037,282.952698 198.849716,290.048035 179.926041,277.517090 
	C178.703003,276.707245 177.500290,275.866699 175.547943,274.535858 
	C177.039108,285.819244 180.560150,295.364899 187.232422,303.681641 
	C188.065002,304.719421 189.102295,305.647705 189.707001,306.803436 
	C191.682480,310.579102 190.107452,313.299683 185.873016,313.328674 
	C175.543655,313.399445 165.213074,313.396332 154.883957,313.309052 
	C153.029739,313.293365 150.564682,314.253845 149.540298,311.854492 
	C148.532700,309.494537 149.574921,307.404999 151.236450,305.497864 
	C158.557724,297.094177 162.588562,287.196228 164.237152,276.257172 
	C164.282333,275.957397 164.140762,275.629486 164.070206,275.221985 
	C162.265640,275.326569 161.258850,276.796448 159.908966,277.624054 
	C147.294662,285.357544 134.276764,285.960022 121.589981,278.485107 
	C108.988510,271.060455 103.797691,259.396484 104.546120,244.804123 
	C105.259979,230.886047 112.060196,220.248688 121.778145,211.030701 
	C127.839531,205.281143 134.656158,200.468323 141.394791,195.579376 
	C152.054001,187.846039 162.854172,180.294052 169.543289,168.072144 
	C172.713623,170.437378 173.573120,174.082581 176.230896,176.744385 
z"/>
<path fill="currentColor" opacity="1.000000" stroke="none" 
	d="
M38.792675,50.268852 
	C38.662014,46.196114 38.683968,42.376770 33.025078,42.288643 
	C21.264679,42.105488 21.267160,41.946095 19.881046,49.489143 
	C20.136642,50.727058 21.298367,50.781456 22.163273,51.166985 
	C23.512220,51.768276 24.417233,52.570198 24.088398,54.203526 
	C23.743359,55.917343 22.374453,56.114132 21.030695,56.130005 
	C17.535467,56.171307 14.038312,56.146339 10.543498,56.072948 
	C9.330881,56.047485 8.232166,55.633789 7.916584,54.237068 
	C7.570576,52.705704 8.132814,51.438457 9.599054,51.075119 
	C12.759356,50.291988 13.462012,47.716805 14.321498,45.188145 
	C17.854391,34.794170 21.462379,24.424736 24.873463,13.990932 
	C25.928391,10.764119 27.444607,8.969193 31.177002,8.948388 
	C34.856647,8.927876 36.022686,11.004358 37.018730,13.880789 
	C40.719940,24.569426 44.525894,35.221748 48.260448,45.898922 
	C49.038460,48.123268 49.672211,50.317631 52.387184,51.067013 
	C53.821415,51.462879 54.417545,52.691395 54.129242,54.231075 
	C53.803768,55.969254 52.419109,56.127033 51.081665,56.149410 
	C47.252022,56.213467 43.418491,56.270035 39.591408,56.159416 
	C37.899902,56.110527 35.590111,56.849636 34.964790,54.379566 
	C34.242786,51.527580 36.874760,51.371178 38.792675,50.268852 
M34.463913,34.696163 
	C32.963573,29.937853 31.749043,25.070097 29.043798,19.781984 
	C27.411709,24.811117 26.032066,28.990437 24.705883,33.186653 
	C24.220631,34.722046 24.174728,36.513512 26.151981,36.675205 
	C28.927353,36.902164 32.029881,38.289894 34.463913,34.696163 
z"/>
<path fill="currentColor" opacity="1.000000" stroke="none" 
	d="
M321.706268,467.579895 
	C319.309906,474.555054 316.956818,481.130341 314.848114,487.783081 
	C313.895630,490.788086 312.173309,492.023865 309.042999,492.072754 
	C305.824219,492.123016 304.358917,490.714020 303.346497,487.746399 
	C299.696747,477.048645 295.755615,466.450684 292.004730,455.786804 
	C291.110016,453.243042 290.472687,450.715912 287.411255,449.786407 
	C285.948364,449.342255 285.556763,447.949615 285.935852,446.494080 
	C286.304749,445.077759 287.542969,444.906433 288.714142,444.887329 
	C292.873077,444.819489 297.033936,444.765442 301.192413,444.823700 
	C302.767517,444.845734 304.727142,444.505066 305.120544,446.868378 
	C305.499390,449.144501 303.653625,449.535126 302.175690,450.236969 
	C301.743958,450.441956 301.366638,450.761566 300.733124,451.182159 
	C301.746887,454.660248 301.255127,458.754364 307.117249,458.740448 
	C318.576569,458.713165 318.577148,458.952148 320.129730,451.304932 
	C319.496826,449.934784 317.867401,450.124268 316.849976,449.316498 
	C315.950287,448.602203 315.743195,447.704071 315.926422,446.664215 
	C316.132324,445.495575 317.002502,444.957336 318.053802,444.944031 
	C322.043030,444.893524 326.050385,444.714478 330.017242,445.020813 
	C332.567139,445.217743 333.148895,447.968964 331.462555,448.884186 
	C323.995941,452.936493 325.060730,461.142914 321.706268,467.579895 
M307.156342,471.471436 
	C308.175049,474.432739 309.193787,477.394043 310.640533,481.599609 
	C312.789734,475.215790 315.060150,470.200317 315.954163,464.232635 
	C312.099762,464.078308 308.870270,463.597717 305.644104,464.281525 
	C304.987701,466.834564 306.421692,468.694824 307.156342,471.471436 
z"/>
<path fill="currentColor" opacity="1.000000" stroke="none" 
	d="
M20.722021,77.689789 
	C24.097027,75.269150 27.112413,72.971779 29.733707,70.086639 
	C33.394333,72.994476 36.857731,75.756706 40.333107,78.503792 
	C45.903770,82.907074 48.035877,88.180809 46.230480,93.130104 
	C44.479305,97.930740 41.009705,99.505547 33.046322,99.098938 
	C32.446964,101.617607 35.433258,103.063301 34.945698,105.839088 
	C31.811682,107.472878 28.569534,107.313942 25.364908,106.158051 
	C23.995733,103.163971 27.697500,101.633202 26.843742,98.808517 
	C25.415852,98.961365 23.974190,99.235519 22.530487,99.246712 
	C18.882753,99.275002 16.132254,97.570084 14.372451,94.437965 
	C12.304707,90.757759 12.757647,87.069321 14.871901,83.566544 
	C16.265442,81.257812 18.351950,79.568230 20.722021,77.689789 
z"/>
<path fill="currentColor" opacity="1.000000" stroke="none" 
	d="
M293.121277,411.879578 
	C294.340973,403.537567 297.906708,401.082001 306.879364,402.081757 
	C307.719269,399.529053 304.614014,398.125916 305.063660,395.346649 
	C307.797729,393.300201 311.422699,393.052917 314.066772,394.765930 
	C317.454559,396.960754 312.164337,399.104584 313.251862,401.924164 
	C313.355774,401.955078 313.822235,402.267822 314.187164,402.176208 
	C319.128754,400.935577 323.279114,402.128021 325.693024,406.720886 
	C328.150482,411.396606 326.770081,415.746307 323.388550,419.551453 
	C319.513275,423.912231 313.990753,426.322357 309.940796,431.468414 
	C304.851685,424.223389 294.593628,422.308319 293.121277,411.879578 
z"/>
</svg>

<svg xmlns="http://www.w3.org/2000/svg" viewBox="0 0 336 496" xml:space="preserve"><path fill="currentColor" d="M176.23 176.744c8.135 9.245 18.083 15.728 27.618 22.71 7.276 5.328 14.338 10.913 20.15 17.856 11.091 13.25 15.23 28.308 8.628 44.615-8.513 21.028-33.776 28.123-52.7 15.592-1.223-.81-2.426-1.65-4.378-2.981 1.491 11.283 5.012 20.829 11.684 29.146.833 1.037 1.87 1.966 2.475 3.121 1.975 3.776.4 6.497-3.834 6.526-10.33.07-20.66.067-30.989-.02-1.854-.016-4.32.945-5.344-1.455-1.007-2.36.035-4.449 1.696-6.356 7.322-8.404 11.353-18.302 13.001-29.24.045-.3-.096-.629-.167-1.036-1.804.105-2.811 1.574-4.161 2.402-12.614 7.734-25.632 8.336-38.319.861-12.601-7.425-17.792-19.089-17.044-33.68.714-13.919 7.514-24.556 17.232-33.774 6.062-5.75 12.878-10.563 19.617-15.452 10.659-7.733 21.46-15.285 28.148-27.507 3.17 2.365 4.03 6.01 6.688 8.672zM38.793 50.269c-.131-4.073-.109-7.892-5.768-7.98-11.76-.184-11.758-.343-13.144 7.2.256 1.238 1.417 1.292 2.282 1.678 1.35.601 2.254 1.403 1.925 3.037-.345 1.713-1.714 1.91-3.057 1.926a319.67 319.67 0 0 1-10.488-.057c-1.212-.026-2.31-.44-2.626-1.836-.346-1.531.216-2.799 1.682-3.162 3.16-.783 3.863-3.358 4.722-5.887 3.533-10.394 7.141-20.763 10.552-31.197 1.055-3.227 2.572-5.022 6.304-5.043 3.68-.02 4.846 2.056 5.842 4.933 3.7 10.688 7.507 21.34 11.241 32.018.778 2.224 1.412 4.419 4.127 5.168 1.434.396 2.03 1.624 1.742 3.164-.325 1.738-1.71 1.896-3.047 1.918-3.83.064-7.664.121-11.49.01-1.692-.048-4.002.69-4.627-1.78-.722-2.851 1.91-3.008 3.828-4.11m-4.33-15.573c-1.5-4.758-2.714-9.626-5.42-14.914-1.631 5.03-3.01 9.208-4.337 13.405-.485 1.535-.531 3.327 1.446 3.488 2.775.227 5.878 1.615 8.312-1.979zM321.706 467.58c-2.396 6.975-4.75 13.55-6.858 20.203-.952 3.005-2.675 4.24-5.805 4.29-3.219.05-4.684-1.359-5.697-4.327-3.65-10.697-7.59-21.295-11.341-31.96-.895-2.543-1.532-5.07-4.594-6-1.463-.444-1.854-1.836-1.475-3.292.369-1.416 1.607-1.588 2.778-1.607 4.16-.068 8.32-.122 12.478-.063 1.576.022 3.535-.319 3.929 2.044.378 2.277-1.467 2.667-2.945 3.369-.432.205-.81.525-1.443.945 1.014 3.478.522 7.572 6.384 7.558 11.46-.027 11.46.212 13.013-7.435-.633-1.37-2.263-1.18-3.28-1.989-.9-.714-1.107-1.612-.924-2.652.206-1.168 1.077-1.707 2.128-1.72 3.989-.05 7.996-.23 11.963.077 2.55.197 3.132 2.948 1.446 3.863-7.467 4.052-6.402 12.259-9.757 18.696m-14.55 3.891 3.485 10.129c2.149-6.384 4.42-11.4 5.313-17.367-3.854-.155-7.084-.635-10.31.049-.656 2.553.778 4.413 1.512 7.19zM20.722 77.69c3.375-2.42 6.39-4.718 9.012-7.603 3.66 2.907 7.124 5.67 10.6 8.417 5.57 4.403 7.702 9.677 5.896 14.626-1.75 4.8-5.22 6.376-13.184 5.969-.599 2.519 2.387 3.964 1.9 6.74-3.134 1.634-6.376 1.475-9.581.32-1.37-2.995 2.333-4.526 1.479-7.35-1.428.152-2.87.427-4.314.438-3.647.028-6.398-1.677-8.158-4.809-2.067-3.68-1.614-7.369.5-10.871 1.393-2.31 3.48-3.999 5.85-5.877zM293.121 411.88c1.22-8.342 4.786-10.798 13.758-9.798.84-2.553-2.265-3.956-1.815-6.735 2.734-2.047 6.359-2.294 9.003-.581 3.388 2.195-1.903 4.339-.815 7.158.104.031.57.344.935.252 4.942-1.24 9.092-.048 11.506 4.545 2.457 4.676 1.077 9.025-2.304 12.83-3.876 4.361-9.398 6.771-13.448 11.917-5.09-7.245-15.347-9.16-16.82-19.588z"/></svg>
